svg/42.svg

<svg width="900" height="600" viewBox="0 0 900 600" fill="none" xmlns="http://www.w3.org/2000/svg"><path fill="transparent" d="M0 0h900v600H0z"/><path d="M424.902 252.112c5.154-20.815 53.868-51.215 79.901-32.887 7.99-39.656 15.464-64.385 41.57-83.92 26.106-19.535 69.665 5.999 76.661 59.483 6.996-21.986 42.565-51.618 71.138-26.632 26.437 23.12 29.088 61.861 26.327 83.92H424.902v.036z" fill="url(#a)"/><path d="M416.246 484.735c6.829-27.571 71.366-67.838 105.854-43.561 10.586-52.526 20.488-85.283 55.074-111.158 34.585-25.875 92.293 7.947 101.561 78.789 9.269-29.122 56.391-68.371 94.245-35.276 35.024 30.624 38.537 81.939 34.878 111.158H416.246v.048z" fill="url(#b)"/><path d="M149 282.407c3.876-15.703 40.5-38.636 60.072-24.81 6.007-29.915 11.626-48.571 31.253-63.308 19.627-14.737 52.376 4.526 57.636 44.873 5.26-16.586 32.001-38.939 53.483-20.09 19.876 17.441 21.869 46.667 19.793 63.308H149v.027z" fill="url(#c)"/><path fill-rule="evenodd" clip-rule="evenodd" d="m593.945 179.764-61.679-61.733a43.615 43.615 0 0 0-30.839-12.792H345.005c-24.1 0-43.62 19.537-43.62 43.658v305.611c0 24.121 19.52 43.659 43.62 43.659h218.101c24.1 0 43.62-19.538 43.62-43.659V210.631a43.692 43.692 0 0 0-12.781-30.867z" fill="#FD7600"/><path d="M371.998 257.766h134.615m-134.615 60.979h134.615m-134.615 60.98h96.647" stroke="#fff" stroke-width="27.184" stroke-linecap="round" stroke-linejoin="round"/><path d="M408.672 499.883c-4.101-16.798-42.859-41.332-63.571-26.541-6.357-32.002-12.304-51.96-33.074-67.725-20.771-15.765-55.427 4.842-60.993 48.004-5.566-17.743-33.866-41.657-56.599-21.493-21.034 18.659-23.143 49.923-20.946 67.726h235.183v.029z" fill="url(#d)"/><path clip-rule="evenodd" d="m242.049 400.342 8.656-8.115-8.656-8.114-8.656 8.114 8.656 8.115z" stroke="#E1E4E5" stroke-width="4.328" stroke-linecap="round" stroke-linejoin="round"/><rect x="226.932" y="315.429" width="42.142" height="4.91" rx="2.455" transform="rotate(135 226.932 315.429)" fill="#E1E4E5"/><rect x="210.774" y="315.313" width="15.647" height="4.91" rx="2.455" transform="rotate(135 210.774 315.313)" fill="#E1E4E5"/><rect x="627.406" y="135.038" width="42.142" height="4.91" rx="2.455" transform="rotate(-45 627.406 135.038)" fill="#E1E4E5"/><rect x="643.564" y="135.154" width="15.647" height="4.91" rx="2.455" transform="rotate(-45 643.564 135.154)" fill="#E1E4E5"/><path d="M657.525 293.227c0 5.382-4.119 9.738-9.207 9.738-5.088 0-9.187-4.378-9.187-9.738 0-5.381 4.119-9.737 9.207-9.737 5.088 0 9.187 4.356 9.187 9.737zM198.77 202.883c0 6.876-5.814 12.442-12.997 12.442s-12.97-5.593-12.97-12.442c0-6.876 5.815-12.443 12.998-12.443 7.183 0 12.969 5.567 12.969 12.443z" stroke="#E1E4E5" stroke-width="5.41" stroke-miterlimit="10"/><rect x="671.016" y="194.043" width="25.546" height="25.546" rx="10.82" transform="rotate(45 671.016 194.043)" fill="#fff"/><path d="M260.229 132.942c-10.261 8.966-27.913 5.566-27.913 5.566s-1.003-17.938 9.267-26.898c10.261-8.967 27.905-5.573 27.905-5.573s1.003 17.938-9.259 26.905z" fill="url(#e)"/><path fill-rule="evenodd" clip-rule="evenodd" d="M460.607 499.218s56.856-38.817 136.744-39.362c80.25-.548 144.096 38.033 149.977 40.027l-286.721-.665z" fill="url(#f)"/><path d="M729.533 327.015c-15.069 15.337-43.248 12.103-43.248 12.103s-3.729-28.1 11.354-43.428c15.069-15.337 43.234-12.113 43.234-12.113s3.729 28.101-11.34 43.438z" fill="url(#g)"/><path d="m621.013 104.289-16.792 6.565 1.064-17.998 16.788-6.56-1.06 17.993z" stroke="#E1E4E5" stroke-width="4.551" stroke-linecap="round" stroke-linejoin="round"/><defs><linearGradient id="a" x1="566.81" y1="321.266" x2="568.393" y2="-5.446" gradientUnits="userSpaceOnUse"><stop stop-color="#fff"/><stop offset="1" stop-color="#EEE"/></linearGradient><linearGradient id="b" x1="604.249" y1="576.334" x2="606.344" y2="143.583" gradientUnits="userSpaceOnUse"><stop stop-color="#fff"/><stop offset="1" stop-color="#EEE"/></linearGradient><linearGradient id="c" x1="255.69" y1="334.576" x2="256.888" y2="88.109" gradientUnits="userSpaceOnUse"><stop stop-color="#fff"/><stop offset="1" stop-color="#EEE"/></linearGradient><linearGradient id="d" x1="295.767" y1="555.691" x2="294.471" y2="292.029" gradientUnits="userSpaceOnUse"><stop stop-color="#fff"/><stop offset="1" stop-color="#EEE"/></linearGradient><linearGradient id="e" x1="219.711" y1="163.153" x2="296.781" y2="60.479" gradientUnits="userSpaceOnUse"><stop stop-color="#fff"/><stop offset="1" stop-color="#EEE"/></linearGradient><linearGradient id="f" x1="610.081" y1="522.328" x2="609.908" y2="416.287" gradientUnits="userSpaceOnUse"><stop stop-color="#fff"/><stop offset="1" stop-color="#EEE"/></linearGradient><linearGradient id="g" x1="669.41" y1="379.403" x2="778.351" y2="208.629" gradientUnits="userSpaceOnUse"><stop stop-color="#fff"/><stop offset="1" stop-color="#EEE"/></linearGradient></defs></svg>

<svg width="900" height="600" viewBox="0 0 900 600" fill="none" xmlns="http://www.w3.org/2000/svg">
<g clip-path="url(#clip0_1_23)">
<path d="M424.902 252.112C430.056 231.297 478.77 200.897 504.803 219.225C512.793 179.569 520.267 154.84 546.373 135.305C572.479 115.77 616.038 141.304 623.034 194.788C630.03 172.802 665.599 143.17 694.172 168.156C720.609 191.276 723.26 230.017 720.499 252.076H424.902V252.112V252.112Z" fill="url(#paint0_linear_1_23)"/>
<path d="M416.246 484.735C423.075 457.164 487.612 416.897 522.1 441.174C532.686 388.648 542.588 355.891 577.174 330.016C611.759 304.141 669.467 337.963 678.735 408.805C688.004 379.683 735.126 340.434 772.98 373.529C808.004 404.153 811.517 455.468 807.858 484.687H416.246V484.735Z" fill="url(#paint1_linear_1_23)"/>
<path d="M149 282.407C152.876 266.704 189.5 243.771 209.072 257.597C215.079 227.682 220.698 209.026 240.325 194.289C259.952 179.552 292.701 198.815 297.961 239.162C303.221 222.576 329.962 200.223 351.444 219.072C371.32 236.513 373.313 265.739 371.237 282.38H149V282.407Z" fill="url(#paint2_linear_1_23)"/>
<path fill-rule="evenodd" clip-rule="evenodd" d="M593.945 179.764L532.266 118.031C528.218 113.978 523.41 110.762 518.119 108.567C512.828 106.372 507.156 105.241 501.427 105.239H345.005C320.905 105.239 301.385 124.776 301.385 148.897V454.508C301.385 478.629 320.905 498.167 345.005 498.167H563.106C587.206 498.167 606.726 478.629 606.726 454.508V210.631C606.723 199.055 602.126 187.954 593.945 179.764V179.764Z" fill="#FD7600"/>
<path d="M371.998 257.766H506.613M371.998 318.745H506.613M371.998 379.725H468.645" stroke="white" stroke-width="27.184" stroke-linecap="round" stroke-linejoin="round"/>
<path d="M408.672 499.883C404.571 483.085 365.813 458.551 345.101 473.342C338.744 441.34 332.797 421.382 312.027 405.617C291.256 389.852 256.6 410.459 251.034 453.621C245.468 435.878 217.168 411.964 194.435 432.128C173.401 450.787 171.292 482.051 173.489 499.854H408.672V499.883Z" fill="url(#paint3_linear_1_23)"/>
<path d="M242.049 400.342L250.705 392.227L242.049 384.113L233.393 392.227L242.049 400.342Z" stroke="#F8F8F8" stroke-width="4.328" stroke-linecap="round" stroke-linejoin="round"/>
<path d="M198.869 343.492L225.196 317.165C226.155 316.206 226.155 314.652 225.196 313.693C224.237 312.734 222.683 312.734 221.724 313.693L195.397 340.02C194.438 340.979 194.438 342.533 195.397 343.492C196.356 344.451 197.91 344.451 198.869 343.492Z" fill="#F8F8F8"/>
<path d="M201.446 324.641L209.038 317.049C209.997 316.09 209.997 314.536 209.038 313.577C208.079 312.618 206.525 312.618 205.566 313.577L197.974 321.169C197.015 322.128 197.015 323.682 197.974 324.641C198.933 325.6 200.487 325.6 201.446 324.641Z" fill="#F8F8F8"/>
<path d="M655.469 106.975L629.142 133.302C628.183 134.261 628.183 135.815 629.142 136.774C630.101 137.733 631.655 137.733 632.614 136.774L658.941 110.447C659.9 109.488 659.9 107.934 658.941 106.975C657.982 106.016 656.428 106.016 655.469 106.975Z" fill="#F8F8F8"/>
<path d="M652.892 125.826L645.3 133.418C644.341 134.377 644.341 135.931 645.3 136.89C646.259 137.849 647.813 137.849 648.772 136.89L656.364 129.298C657.323 128.339 657.323 126.785 656.364 125.826C655.405 124.867 653.851 124.867 652.892 125.826Z" fill="#F8F8F8"/>
<path d="M657.525 293.227C657.525 298.609 653.406 302.965 648.318 302.965C643.23 302.965 639.131 298.587 639.131 293.227C639.131 287.846 643.25 283.49 648.338 283.49C653.426 283.49 657.525 287.846 657.525 293.227ZM198.77 202.883C198.77 209.759 192.956 215.325 185.773 215.325C178.59 215.325 172.803 209.732 172.803 202.883C172.803 196.007 178.618 190.44 185.801 190.44C192.984 190.44 198.77 196.007 198.77 202.883Z" stroke="#F8F8F8" stroke-width="5.41" stroke-miterlimit="10"/>
<path d="M681.429 204.456L678.667 201.694C674.441 197.468 667.591 197.468 663.365 201.694L660.603 204.456C656.378 208.681 656.378 215.532 660.603 219.758L663.365 222.52C667.591 226.745 674.441 226.745 678.667 222.52L681.429 219.758C685.654 215.532 685.654 208.681 681.429 204.456Z" fill="white"/>
<path d="M260.229 132.942C249.968 141.908 232.316 138.508 232.316 138.508C232.316 138.508 231.313 120.57 241.583 111.61C251.844 102.643 269.488 106.037 269.488 106.037C269.488 106.037 270.491 123.975 260.229 132.942V132.942Z" fill="url(#paint4_linear_1_23)"/>
<path fill-rule="evenodd" clip-rule="evenodd" d="M460.607 499.218C460.607 499.218 517.463 460.401 597.351 459.856C677.601 459.308 741.447 497.889 747.328 499.883L460.607 499.218V499.218Z" fill="url(#paint5_linear_1_23)"/>
<path d="M729.533 327.015C714.464 342.352 686.285 339.118 686.285 339.118C686.285 339.118 682.556 311.018 697.639 295.69C712.708 280.353 740.873 283.577 740.873 283.577C740.873 283.577 744.602 311.678 729.533 327.015Z" fill="url(#paint6_linear_1_23)"/>
<path d="M621.013 104.289L604.221 110.854L605.285 92.856L622.073 86.296L621.013 104.289V104.289Z" stroke="#F8F8F8" stroke-width="4.551" stroke-linecap="round" stroke-linejoin="round"/>
</g>
<defs>
<linearGradient id="paint0_linear_1_23" x1="566.81" y1="321.266" x2="568.393" y2="-5.446" gradientUnits="userSpaceOnUse">
<stop stop-color="white"/>
<stop offset="1" stop-color="#EEEEEE"/>
</linearGradient>
<linearGradient id="paint1_linear_1_23" x1="604.249" y1="576.334" x2="606.344" y2="143.583" gradientUnits="userSpaceOnUse">
<stop stop-color="white"/>
<stop offset="1" stop-color="#EEEEEE"/>
</linearGradient>
<linearGradient id="paint2_linear_1_23" x1="255.69" y1="334.576" x2="256.888" y2="88.109" gradientUnits="userSpaceOnUse">
<stop stop-color="white"/>
<stop offset="1" stop-color="#EEEEEE"/>
</linearGradient>
<linearGradient id="paint3_linear_1_23" x1="295.767" y1="555.691" x2="294.471" y2="292.029" gradientUnits="userSpaceOnUse">
<stop stop-color="white"/>
<stop offset="1" stop-color="#EEEEEE"/>
</linearGradient>
<linearGradient id="paint4_linear_1_23" x1="219.711" y1="163.153" x2="296.781" y2="60.479" gradientUnits="userSpaceOnUse">
<stop stop-color="white"/>
<stop offset="1" stop-color="#EEEEEE"/>
</linearGradient>
<linearGradient id="paint5_linear_1_23" x1="610.081" y1="522.328" x2="609.908" y2="416.287" gradientUnits="userSpaceOnUse">
<stop stop-color="white"/>
<stop offset="1" stop-color="#EEEEEE"/>
</linearGradient>
<linearGradient id="paint6_linear_1_23" x1="669.41" y1="379.403" x2="778.351" y2="208.629" gradientUnits="userSpaceOnUse">
<stop stop-color="white"/>
<stop offset="1" stop-color="#EEEEEE"/>
</linearGradient>
<clipPath id="clip0_1_23">
<rect width="900" height="600" fill="white"/>
</clipPath>
</defs>
</svg>
